X: 119
T: Fenhong lian
%%abc-version 2.0
%%abcx-abcm2ps-target-version 5.9.1 (29 Sep 2008)
%%abc-creator hum2abc beta
%%abcx-conversion-date 2013/10/02 07:52:29
%%abc-edited-by Helmut Schaffrath
%%humdrum-veritas 148544171
%%humdrum-veritas-data 2001770206
%%continueall 1
%%barnumbers 0
L: 1/8
M: 2/4
K: F
f d/ c/ A d [I:setbarnb 1]| 
c3d | 
A c G A | 
c4 | 
c A c d | 
D C/ D/F2 | 
G c F D | 
C4 | 
A> A A A | 
G A c3/ f/ | 
A A/ G/ F D/ F/ | 
G4 | 
c A c3/ d/ | 
D C/ D/F2 | 
G c F D | 
C4 |]  



